dist/assets/img/pay/qiwi.svg

<svg width="112" height="51" viewBox="0 0 112 51" fill="none" xmlns="http://www.w3.org/2000/svg">
<g clip-path="url(#clip0)">
<path d="M54.7773 28.716H56.5143V32.609H57.7693L60.0213 28.716H61.9203L59.2173 33.285V33.317L62.0813 38.303H60.1183L57.8013 34.12H56.5473V38.303H54.8093V28.715H54.7773V28.716ZM65.9743 31.258C68.0643 31.258 69.7703 32.77 69.7703 34.861C69.7703 36.985 68.0973 38.465 66.0063 38.465C63.9143 38.465 62.2413 36.985 62.2413 34.861C62.2093 32.738 63.8823 31.258 65.9743 31.258ZM71.1213 31.418H72.7623V36.824H74.9183V31.419H76.5583V36.824H78.7143V31.419H80.3553V38.303H71.1853V31.418H71.1213ZM85.2143 31.258C87.1763 31.258 88.2703 32.706 88.2703 34.508C88.2649 34.7342 88.2436 34.9598 88.2063 35.183H83.4763C83.5733 36.373 84.5063 37.017 85.5363 37.017C86.2433 37.017 86.9513 36.695 87.4983 36.277L88.1743 37.5C87.4663 38.11 86.4043 38.497 85.4073 38.497C83.1223 38.497 81.7073 36.856 81.7073 34.893C81.7073 32.738 83.1543 31.258 85.2143 31.258ZM89.0743 36.856C89.9113 36.727 90.5223 36.02 90.5223 33.574V31.419H95.5423V38.303H93.8363V32.801H92.1633V33.573C92.1633 36.565 91.3593 38.303 89.0743 38.367V36.855V36.856ZM100.432 31.258C102.394 31.258 103.488 32.706 103.488 34.508C103.483 34.7342 103.462 34.9598 103.424 35.183H98.6943C98.7913 36.373 99.7243 37.017 100.754 37.017C101.461 37.017 102.169 36.695 102.716 36.277L103.392 37.5C102.684 38.11 101.622 38.497 100.625 38.497C98.3413 38.497 96.9253 36.856 96.9253 34.893C96.9253 32.738 98.3733 31.258 100.432 31.258ZM104.904 31.418H106.609V34.057H107.446L109.119 31.419H111.017L108.829 34.7V34.733L111.274 38.303H109.28L107.478 35.505H106.578V38.303H104.871V31.418H104.903H104.904ZM65.9743 36.985C67.1003 36.985 68.0333 36.116 68.0333 34.829C68.0333 33.574 67.1003 32.673 65.9733 32.673C64.8483 32.673 63.9473 33.543 63.9473 34.829C63.9473 36.116 64.8473 36.985 65.9743 36.985ZM86.5333 33.993C86.5333 33.092 85.9213 32.545 85.1493 32.545C84.2813 32.545 83.6373 33.124 83.4763 33.993H86.5333ZM101.751 33.993C101.751 33.092 101.14 32.545 100.368 32.545C99.4983 32.545 98.8553 33.124 98.6943 33.993H101.751Z" fill="#2D3540"/>
<path d="M78.811 7.835V24.083C78.8124 24.1425 78.8017 24.2016 78.7795 24.2568C78.7574 24.312 78.7243 24.3622 78.6822 24.4042C78.6402 24.4463 78.59 24.4794 78.5348 24.5015C78.4796 24.5237 78.4205 24.5344 78.361 24.533H75.047C74.9875 24.5344 74.9284 24.5237 74.8732 24.5015C74.818 24.4794 74.7678 24.4463 74.7258 24.4042C74.6837 24.3622 74.6506 24.312 74.6285 24.2568C74.6063 24.2016 74.5956 24.1425 74.597 24.083V7.835C74.5956 7.77553 74.6063 7.7164 74.6285 7.66119C74.6506 7.60597 74.6837 7.55582 74.7258 7.51376C74.7678 7.47169 74.818 7.4386 74.8732 7.41647C74.9284 7.39434 74.9875 7.38363 75.047 7.385H78.361C78.4205 7.38363 78.4796 7.39434 78.5348 7.41647C78.59 7.4386 78.6402 7.47169 78.6822 7.51376C78.7243 7.55582 78.7574 7.60597 78.7795 7.66119C78.8017 7.7164 78.8124 7.77553 78.811 7.835ZM104.679 7.385C104.808 7.385 104.969 7.449 105.129 7.578C105.226 7.674 105.226 7.835 105.194 7.964L99.724 24.244C99.6908 24.3282 99.6334 24.4008 99.559 24.4524C99.4846 24.504 99.3965 24.5324 99.306 24.534H96.346C96.153 24.534 95.992 24.437 95.928 24.244L92.741 14.753L89.556 24.243C89.5228 24.3272 89.4654 24.3998 89.391 24.4514C89.3166 24.503 89.2285 24.5314 89.138 24.533H86.178C85.985 24.533 85.824 24.437 85.76 24.243L80.29 7.963C80.258 7.835 80.258 7.706 80.354 7.578C80.419 7.449 80.58 7.385 80.708 7.385H84.408C84.601 7.385 84.762 7.513 84.827 7.706L87.754 17.326L90.972 7.706C91.0052 7.62175 91.0626 7.54924 91.137 7.49762C91.2114 7.44601 91.2995 7.4176 91.39 7.416H93.996C94.189 7.416 94.35 7.513 94.414 7.706L97.632 17.326L100.56 7.706C100.586 7.61487 100.641 7.53453 100.716 7.47677C100.791 7.41901 100.883 7.38685 100.978 7.385H104.678H104.679ZM110.277 7.385C110.502 7.385 110.695 7.578 110.727 7.835V24.083C110.728 24.1425 110.718 24.2016 110.696 24.2568C110.673 24.312 110.64 24.3622 110.598 24.4042C110.556 24.4463 110.506 24.4794 110.451 24.5015C110.396 24.5237 110.336 24.5344 110.277 24.533H106.963C106.904 24.5344 106.844 24.5237 106.789 24.5015C106.734 24.4794 106.684 24.4463 106.642 24.4042C106.6 24.3622 106.567 24.312 106.544 24.2568C106.522 24.2016 106.512 24.1425 106.513 24.083V7.835C106.512 7.77553 106.522 7.7164 106.544 7.66119C106.567 7.60597 106.6 7.55582 106.642 7.51376C106.684 7.47169 106.734 7.4386 106.789 7.41647C106.844 7.39434 106.904 7.38363 106.963 7.385H110.277ZM72.666 23.955C72.859 24.18 72.698 24.501 72.408 24.501H68.354C68.2742 24.5032 68.1949 24.4869 68.1224 24.4534C68.0499 24.4199 67.9861 24.3702 67.936 24.308L67.261 23.472C65.845 24.372 64.171 24.92 62.402 24.92C57.448 24.92 53.426 20.898 53.426 15.943C53.426 10.988 57.448 6.966 62.402 6.966C67.357 6.966 71.379 10.988 71.379 15.943C71.379 17.713 70.864 19.386 69.963 20.801L72.666 23.954V23.955ZM38.786 31.837C39.623 32.159 39.945 33.413 40.009 33.96C40.138 34.958 39.849 35.344 39.527 35.344C39.205 35.344 38.754 34.958 38.272 34.186C37.789 33.413 37.596 32.545 37.854 32.094C38.014 31.804 38.368 31.676 38.787 31.837H38.786ZM33.896 35.473C34.411 35.473 34.99 35.698 35.505 36.148C36.502 36.985 36.792 37.95 36.277 38.658C35.987 39.012 35.505 39.237 34.958 39.237C34.411 39.237 33.832 39.044 33.446 38.69C32.545 37.918 32.288 36.63 32.866 35.923C33.092 35.633 33.446 35.473 33.896 35.473ZM22.636 44.771C10.409 44.771 0.5 34.861 0.5 22.635C0.5 10.409 10.41 0.5 22.635 0.5C34.861 0.5 44.771 10.41 44.771 22.635C44.771 26.785 43.613 30.679 41.651 33.993C41.586 34.089 41.425 34.057 41.393 33.928C40.621 28.491 37.307 25.498 32.481 24.598C32.062 24.533 31.998 24.276 32.545 24.212C34.025 24.083 36.116 24.115 37.21 24.308C37.274 23.761 37.307 23.182 37.307 22.603C37.307 14.527 30.743 7.963 22.667 7.963C14.592 7.963 8.028 14.527 8.028 22.603C8.028 30.679 14.592 37.243 22.668 37.243H23.343C23.1137 35.9367 23.0165 34.6107 23.053 33.285C23.086 32.384 23.279 32.255 23.665 32.963C25.692 36.47 28.588 39.623 34.25 40.878C38.883 41.908 43.516 43.098 48.503 49.436C48.953 49.983 48.278 50.562 47.763 50.112C42.68 45.607 38.047 44.127 33.832 44.127C29.102 44.16 25.885 44.771 22.635 44.771H22.636ZM64.622 20.351L62.852 18.195C62.66 17.97 62.821 17.616 63.11 17.616H66.842C67.035 17.101 67.132 16.522 67.132 15.943C67.132 13.273 65.137 10.956 62.402 10.956C59.668 10.956 57.672 13.273 57.672 15.943C57.672 18.613 59.668 20.898 62.402 20.898C63.174 20.93 63.947 20.705 64.622 20.351Z" fill="#FF8C00"/>
</g>
<defs>
<clipPath id="clip0">
<rect width="111.774" height="50.7731" fill="white"/>
</clipPath>
</defs>
</svg>

<svg width="112" height="51" fill="none" xmlns="http://www.w3.org/2000/svg"><g clip-path="url(#clip0)"><path d="M54.777 28.716h1.737v3.893h1.255l2.252-3.893h1.9l-2.704 4.569v.032l2.864 4.986h-1.963l-2.317-4.183h-1.254v4.183H54.81v-9.588h-.032v.001zm11.197 2.542c2.09 0 3.796 1.512 3.796 3.603 0 2.124-1.673 3.604-3.764 3.604-2.092 0-3.765-1.48-3.765-3.604-.032-2.123 1.641-3.603 3.733-3.603zm5.147.16h1.641v5.406h2.156v-5.405h1.64v5.405h2.156v-5.405h1.641v6.884h-9.17v-6.885h-.064zm14.093-.16c1.962 0 3.056 1.448 3.056 3.25a4.789 4.789 0 01-.064.675h-4.73c.097 1.19 1.03 1.834 2.06 1.834.707 0 1.415-.322 1.962-.74l.676 1.223c-.708.61-1.77.997-2.767.997-2.285 0-3.7-1.641-3.7-3.604 0-2.155 1.447-3.635 3.507-3.635zm3.86 5.598c.837-.129 1.448-.836 1.448-3.282v-2.155h5.02v6.884h-1.706v-5.502h-1.673v.772c0 2.992-.804 4.73-3.089 4.794v-1.512.001zm11.358-5.598c1.962 0 3.056 1.448 3.056 3.25a4.63 4.63 0 01-.064.675h-4.73c.097 1.19 1.03 1.834 2.06 1.834.707 0 1.415-.322 1.962-.74l.676 1.223c-.708.61-1.77.997-2.767.997-2.284 0-3.7-1.641-3.7-3.604 0-2.155 1.448-3.635 3.507-3.635zm4.472.16h1.705v2.639h.837l1.673-2.638h1.898l-2.188 3.281v.033l2.445 3.57h-1.994l-1.802-2.798h-.9v2.798h-1.707v-6.885h.033zm-38.93 5.567c1.126 0 2.06-.869 2.06-2.156 0-1.255-.934-2.156-2.06-2.156s-2.027.87-2.027 2.156c0 1.287.9 2.156 2.027 2.156zm20.56-2.992c0-.901-.613-1.448-1.385-1.448-.868 0-1.512.579-1.673 1.448h3.057zm15.217 0c0-.901-.611-1.448-1.383-1.448-.87 0-1.513.579-1.674 1.448h3.057z" fill="#2D3540"/><path d="M78.811 7.835v16.248a.438.438 0 01-.45.45h-3.314a.438.438 0 01-.45-.45V7.835a.438.438 0 01.45-.45h3.314a.44.44 0 01.45.45zm25.868-.45c.129 0 .29.064.45.193.097.096.097.257.065.386l-5.47 16.28a.458.458 0 01-.418.29h-2.96c-.193 0-.354-.097-.418-.29l-3.187-9.491-3.185 9.49a.458.458 0 01-.418.29h-2.96c-.193 0-.354-.096-.418-.29l-5.47-16.28c-.032-.128-.032-.257.064-.385.065-.129.226-.193.354-.193h3.7c.193 0 .354.128.419.321l2.927 9.62 3.218-9.62a.458.458 0 01.418-.29h2.606c.193 0 .354.097.418.29l3.218 9.62 2.928-9.62a.443.443 0 01.418-.321h3.701zm5.598 0c.225 0 .418.193.45.45v16.248a.448.448 0 01-.031.174.456.456 0 01-.245.244.44.44 0 01-.174.032h-3.314a.44.44 0 01-.45-.45V7.835a.449.449 0 01.031-.174.456.456 0 01.245-.245.442.442 0 01.174-.031h3.314zm-37.611 16.57c.193.225.032.546-.258.546h-4.054a.518.518 0 01-.418-.193l-.675-.836c-1.416.9-3.09 1.448-4.859 1.448-4.954 0-8.976-4.022-8.976-8.977s4.022-8.977 8.976-8.977c4.955 0 8.977 4.022 8.977 8.977a9.03 9.03 0 01-1.416 4.858l2.703 3.153v.001zm-33.88 7.882c.837.322 1.159 1.576 1.223 2.123.129.998-.16 1.384-.482 1.384-.322 0-.773-.386-1.255-1.158-.483-.773-.676-1.641-.418-2.092.16-.29.514-.418.933-.257h-.001zm-4.89 3.636c.515 0 1.094.225 1.609.675.997.837 1.287 1.802.772 2.51-.29.354-.772.579-1.319.579-.547 0-1.126-.193-1.512-.547-.901-.772-1.158-2.06-.58-2.767.226-.29.58-.45 1.03-.45zm-11.26 9.298C10.409 44.771.5 34.861.5 22.635.5 10.409 10.41.5 22.635.5c12.226 0 22.136 9.91 22.136 22.135 0 4.15-1.158 8.044-3.12 11.358-.065.096-.226.064-.258-.065-.772-5.437-4.086-8.43-8.912-9.33-.419-.065-.483-.322.064-.386 1.48-.129 3.571-.097 4.665.096.064-.547.097-1.126.097-1.705 0-8.076-6.564-14.64-14.64-14.64-8.075 0-14.639 6.564-14.639 14.64s6.564 14.64 14.64 14.64h.675a19.75 19.75 0 01-.29-3.958c.033-.901.226-1.03.612-.322 2.027 3.507 4.923 6.66 10.585 7.915 4.633 1.03 9.266 2.22 14.253 8.558.45.547-.225 1.126-.74.676-5.083-4.505-9.716-5.985-13.931-5.985-4.73.033-7.947.644-11.197.644h.001zm41.986-24.42l-1.77-2.156c-.192-.225-.031-.579.258-.579h3.732c.193-.515.29-1.094.29-1.673 0-2.67-1.995-4.987-4.73-4.987-2.734 0-4.73 2.317-4.73 4.987s1.996 4.955 4.73 4.955c.772.032 1.545-.193 2.22-.547z" fill="#FF8C00"/></g><defs><clipPath id="clip0"><path fill="#fff" d="M0 0h111.774v50.773H0z"/></clipPath></defs></svg>
